X:3
T:Песнь 4
M:4/4
L:1/4
Q:1/4=120
K:F
V:1 clef=treble name="Soprano"
%%MIDI program 40
V:2 clef=treble name="Alto"
%%MIDI program 40
V:3 clef=bass octave=-1 name="Tenor"
%%MIDI program 40
V:4 clef=bass octave=-2 name="Bass"
%%MIDI program 40
%%score [(1 2) (3 4)]
%%tempo { 40, 60, *80, 100, 120, 140 }
%%player_top
[V:1]ABc2ABcdcB/A/G2 |
s: "Песнь 4"
[V:2]FGA2FGABAG/F/E2 |
w:Жезл из ко-ре-не И-ес-се-о--ва,
[V:3]ccf2ccfffcc2 |
[V:4]fff2ffffffc2 |
[V:1]EG2EFG/A/BA2 | (AB)c2cdcB/A/G2 |
[V:2]CE2CDE/F/GF2 | (FG)A2ABAG/F/E2 |
w:и цвет от не-го * Хрис-те, от * Де-вы про-зябл е--си
[V:3]cc2ccccc2 | c2f2fffcc2 |
[V:4]cc2ccccf2 | f2f2ffffc2 |
[V:1]EEF(G/A/B)A2 | AABc2cd(cB/A/)G2 |
[V:2]^CCD(E/F/G)F2 | FFGA2AB(AG/F/)E2 |
w:из Го-ры Хваль---ный, при-о-се-нен-ны-я ча---щи
[V:3]AAAc2c2 | cccf2ff(fc)c2 |
[V:4]AAdc2f2 | ffff2fff2c2 |
[V:1]GBAGA(B/A/G)A2 | AAAABc2cc
[V:2]EGFEF(G/F/E)F2 | FFFFGA2AA
w:при-шел е-си, во-площ---ся от Не-ис-ку-со-муж-ны-я,
[V:3]cccccc2c2 | cccccf2ff
[V:4]cccccc2f2 | ffffff2ff
[V:1]ABcccBA2B2 | BAGFGAB2G2A4 |]
[V:2]FGAAAG^F2G2 | GFEDEFG2E2F4 |]
w:Не-ве-щест-вен-ный и Бо-же, сла-ва си-ле Тво-ей, Го-спо-ди.
[V:3]ccfffdd2d2 | ccccccc2c2c4 |]
[V:4]fffffgd2g2 | ccccccc2c2f4 |]
%%newpage
